X:95
T:Columbus Stockade Blues
C: Leon Russell & Newgrass Revival
N:mandolin Solo Sam Bush - Transcribed by Philippe Colleu
R:bluegrass
L:1/8
Q:1/4=190
M:4/4
K:C
"(105 bpm)"z2 (3^dee (3eee (3dee | "Am"(3eee (3^dee (3eze (3cAc | A2 [e2A2A2] [e2c2] [e2d2] | 
[ed]e ea gd eg | de ^d/=d/c dc Ae | "E7"de ee ge aA | db dA de c'A | "Am"db zc ac ca | 
c4 (3c'ba (3bab | (3c'ba (3bab c'2 bc' | ba ga eg ae | a2 ga eg de | ^d/=d/c dA c2 d/z/e | 
"E7"[ee]e ee de [e2c2] | Ac A2 ED G,G, | "Am"CA, A,A, z2 A,G, | CA, A,A, A,4 | 


